X:1
T:Title
%%score { ( 1 4 ) | ( 2 3 ) }
L:1/8
M:4/4
K:A
V:1 treble nm="Grand Piano"
V:4 treble 
V:2 bass 
V:3 bass 
V:1
 z4 z2[Q:1/4=100] [CE]2 | [Ec]2 [Ec]>B [A,CA]2 [A,CE]2 | [A,EG]2 [A,DF]2 E2 E2 | B2 B>^A B2 =c2 | %4
 [Ec]6[K:bass][K:treble] z2 | [Ec]2 [Ec]>[DB] [CA]2 [CA]2 | [GB]2 [=Gc]2 [Fd]2 [Fd]2 | c3 E F2 G2 | %8
[M:3/4] [CA]6 |[M:1/4] [CE]2 |[M:4/4] [Ec]2 [ec']>[db] [ca]2 [CE]2 | %11
 [Gd]2 [fd']>[ec'] [db]2 [DE]2 | [Gd]2 [Gd]>[Gd] [B,DF]2 [B,DG]2 | [A,CE]6 z2 | %14
 [Ec]2 [Aa]>[Aa] [Aa]2 [EA]2 | [Fd]2 [dd']>[dd'] [dd']2 [A^d]2 | [Ae]3 [FAd] [EAc]2 [DGB]2 | %17
[M:3/4] [A,CEA]6 |] %18
V:2
 z4 z2 [A,,A,]2 | [A,,A,]2 z z/ D/ A,,2 A,,2 | D,E,F,G, [A,C]2 [A,C]2 | %3
 [E,G,D]2 D>C [E,G,D]2 [E,G,^D]2 | A,6 [A,,A,]2 | [A,,A,]2 [A,,A,]2 [A,,A,]2 [A,,A,]2 | %6
 [A,,A,]2 [A,,A,]2 [D,A,]2 [D,A,]2 | [E,A,E]3 [E,A,C] [E,B,D]2 [E,B,D]2 |[M:3/4] [A,,A,]6 | %9
[M:1/4] [A,,A,]2 |[M:4/4] [A,,A,]2 [E,A,C]2 [E,A,C]2 [E,A,]2 | [E,B,]2 [E,G,D]2 [E,G,D]2 [E,G,]2 | %12
 [E,B,]2 [E,B,]>[E,B,] E,2 E,2 | z2 G,,>F,, E,,2 [A,,A,]2 | %14
 [A,,A,]2 [=G,CE]>[G,CE] [G,CE]2 [G,C]2 | [F,D]2 [F,A,D]>[F,A,D] [F,A,D]2 [^E,=C]2 | %16
 [E,C]3 E, E,2 E,2 |[M:3/4] A,,6 |] %18
V:3
 x8 | z2 [A,,A,]2 z4 | x8 | z2 [E,G,]2 z4 | A,,4 z4 | x8 | x8 | x8 |[M:3/4] x6 |[M:1/4] x2 | %10
[M:4/4] x8 | x8 | x8 | A,,6 z2 | x8 | x8 | x8 |[M:3/4] x6 |] %18
V:4
 x8 | x8 | x8 | x8 | z2[K:bass] E,C, A,,2[K:treble] [CE]2 | x8 | x8 | x8 |[M:3/4] x6 |[M:1/4] x2 | %10
[M:4/4] x8 | x8 | x8 | z2 G,>F, E,2 [CE]2 | x8 | x8 | x8 |[M:3/4] x6 |] %18

